X:9
T:Jacky Tar
R:hornpipe
M:4/4
L:1/8
K:Edor
(Bd) | "Em"  e2 ed efge | "G" d2 B2 B2 (dB) | "D" ABde faef |  d2 A2 A2 (Bd) |
       "Em" e2 ef g2 fe | "G" dB GB d2 (cB) | "D" AGFE DEFA | "Em" G2 E2 E2  :|
(GA) | "Em" BGEG   BGEG |     BAGF  E2 (FG) | "D" BGEG BGEG |   AGFE D2 (EF) |
       "G" GFGB g2 (fe) |     dBGB  d2 (cB) | "D" AGFE DEFA | "Em" G2 E2 E2  :|
